packages/components/icons/assets/Axles.svg

<svg viewBox="0 0 24 24" xmlns="http://www.w3.org/2000/svg" data-title="Axles" fill="currentColor" stroke="none">
  <path d="M18 14.7439C18 14.4919 17.8624 14.3418 17.6312 14.3418H15.894C15.6628 14.3418 15.5252 14.4919 15.5226 14.7411V16.2957H13.8035C13.7282 15.8908 13.5594 15.5396 13.2971 15.2536C13.0348 14.9648 12.7128 14.7807 12.3441 14.7015V9.79126H12.5622C12.6817 9.79126 12.7726 9.75445 12.8375 9.68366C12.9024 9.61286 12.9362 9.50809 12.9362 9.37783V8.84264H13.0167C13.1751 8.84264 13.3309 8.84264 13.4841 8.84264C13.6892 8.84264 13.8321 8.68406 13.8347 8.46319C13.8347 8.3301 13.8347 8.19418 13.8347 8.06108V7.70712H15.5226V9.2589C15.5226 9.51092 15.6602 9.661 15.8914 9.661H17.6287C17.8598 9.661 17.9974 9.51092 17.9974 9.2589V5.39644C17.9974 5.15291 17.8572 5 17.6312 5H15.8862C15.6602 5 15.5226 5.15291 15.5226 5.39927V6.95388H13.8347V6.20914C13.8347 5.97128 13.6918 5.81553 13.4737 5.81553H10.5237C10.3004 5.81553 10.1627 5.96561 10.1627 6.20914V6.76982V6.95388H8.47479V5.40777C8.47479 5.15008 8.33975 5 8.10344 5H6.36615C6.14023 5 6 5.15291 6 5.39644V9.2589C6 9.51092 6.13763 9.661 6.36875 9.661H8.10604C8.33716 9.661 8.47479 9.51092 8.47479 9.2589V7.70712H10.1627V7.80623C10.1627 7.9818 10.1653 8.15736 10.1601 8.33293C10.1549 8.46319 10.1601 8.62743 10.2614 8.73503C10.3627 8.84264 10.5107 8.85113 10.6302 8.84264C10.7548 8.83697 10.8821 8.83697 11.0093 8.83981H11.0586V9.39199C11.0586 9.63552 11.1989 9.78843 11.4248 9.78843H11.6533V14.7015C11.282 14.7836 10.9626 14.9676 10.7003 15.2536C10.4354 15.5396 10.2666 15.8908 10.1939 16.2957H8.47479V14.7439C8.47479 14.4919 8.33716 14.3418 8.10604 14.3418H6.37654C6.13763 14.3418 6 14.4919 6 14.7524V18.5979C6 18.8499 6.13763 19 6.36875 19H8.09825C8.34235 19 8.47739 18.8528 8.47739 18.5837V17.0461H10.1965C10.3601 17.9466 11.0353 18.6092 11.8766 18.6715C12.3285 18.7055 12.7388 18.5724 13.0998 18.2779C13.4763 17.9721 13.7126 17.5587 13.8061 17.0489H15.5252V18.6036C15.5252 18.8528 15.6628 19.0028 15.894 19.0028H17.6235C17.8624 19.0028 18 18.8528 18 18.5922V14.7468V14.7439ZM17.317 15.0837V18.2524H16.2082V15.0837H17.317ZM13.1517 6.56028V8.09506H10.8457V6.56028H13.1517ZM12.0013 15.4066C12.3077 15.4066 12.596 15.5396 12.8167 15.7803C13.0374 16.021 13.1569 16.3354 13.1569 16.6695C13.1569 17.0065 13.0348 17.3236 12.8167 17.5615C12.5986 17.7994 12.3051 17.9324 11.9987 17.9324C11.3625 17.9324 10.8431 17.3661 10.8431 16.6695C10.8431 16.3325 10.9652 16.0154 11.1833 15.7775C11.404 15.5368 11.6949 15.4066 12.0013 15.4066ZM12.2532 8.84547V9.04652H11.7442V8.84547H12.2532ZM16.2056 8.91343V5.74474H17.3144V8.91343H16.2056ZM7.79182 5.74757V8.91626H6.68297V5.74757H7.79182ZM6.68297 18.2553V15.0866H7.79182V18.2553H6.68297Z"/>
</svg>

<svg viewBox="0 0 24 24" xmlns="http://www.w3.org/2000/svg" data-title="Axles" fill="currentColor" stroke="none">
  <path d="m18,14.74c0-.25-.14-.4-.37-.4h-1.74c-.23,0-.37.15-.37.4v1.55h-1.72c-.08-.4-.24-.76-.51-1.04-.26-.29-.58-.47-.95-.55v-4.91h.22c.12,0,.21-.04.28-.11.06-.07.1-.18.1-.31v-.54h.55c.21,0,.35-.16.35-.38v-.76h1.69v1.55c0,.25.14.4.37.4h1.74c.23,0,.37-.15.37-.4v-3.86c0-.24-.14-.4-.37-.4h-1.75c-.23,0-.36.15-.36.4v1.55h-1.69v-.74c0-.24-.14-.39-.36-.39h-2.95c-.22,0-.36.15-.36.39v.74h-1.69v-1.55c0-.26-.14-.41-.37-.41h-1.74c-.23,0-.37.15-.37.4v3.86c0,.25.14.4.37.4h1.74c.23,0,.37-.15.37-.4v-1.55h1.69v.1c0,.18,0,.35,0,.53,0,.13,0,.29.1.4.1.11.25.12.37.11.12,0,.25,0,.38,0h.05v.55c0,.24.14.4.37.4h.23v4.91c-.37.08-.69.27-.95.55-.26.29-.43.64-.51,1.04h-1.72v-1.55c0-.25-.14-.4-.37-.4h-1.73c-.24,0-.38.15-.38.41v3.85c0,.25.14.4.37.4h1.73c.24,0,.38-.15.38-.42v-1.54h1.72c.16.9.84,1.56,1.68,1.63.45.03.86-.1,1.22-.39.38-.31.61-.72.71-1.23h1.72v1.55c0,.25.14.4.37.4h1.73c.24,0,.38-.15.38-.41v-3.85h0Zm-.68.34v3.17h-1.11v-3.17h1.11Zm-4.17-8.52v1.53h-2.31v-1.53h2.31Zm-1.15,8.85c.31,0,.59.13.82.37s.34.56.34.89-.12.65-.34.89-.51.37-.82.37c-.64,0-1.16-.57-1.16-1.26,0-.34.12-.65.34-.89.22-.24.51-.37.82-.37Zm.25-6.56v.2h-.51v-.2h.51Zm3.95.07v-3.17h1.11v3.17h-1.11Zm-8.41-3.17v3.17h-1.11v-3.17h1.11Zm-1.11,12.51v-3.17h1.11v3.17h-1.11Z"/>
</svg>
